X: 11124
T: GOOD NIGHT AND JOY BE WI' YOU A'.
Q: "Slow."
%R: air, strathspey
B: W. Hamilton "Universal Tune-Book" Vol. 1 Glasgow 1844 p.112 #4
S: http://imslp.org/wiki/Hamilton's_Universal_Tune-Book_(Various)
Z: 2016 John Chambers <jc:trillian.mit.edu>
M: C
L: 1/8
K: A
%%slurgraces yes
%%graceslurs yes
% - - - - - - - - - - - - - - - - - - - - - - - - -
e>d |\
(c2 cd/e/) G3c | {F}A2 {F}A2 a3g |\
(eg)(ag) (e{d}c)(af) | {f}e2 d>c c2 :|\
|: e2 |\
d>cde d2(cA) | G>Acd (c/d/)e d>c |
d>cde f>Ffg | agf>e d3e |\
f>Ffg (f/g/a) g>e | ed (c/d/)(e/f/) g2 f>e |\
d2a2 (g>e)(d>e) | c2 A>B A2 :|
% - - - - - - - - - - - - - - - - - - - - - - - - -

%%sep 1 1 500
%%sep 1 1 500

